!!!COM: Beethoven
!!!OTL: 7 Variations on a Quartet by Winter
!!!Variation: Variation 3 c
**function	**harm	**kern	**kern
*	*	*clefF4	*clefG2
*	*	*k[b-]	*k[b-]
*M2/4	*M2/4	*M2/4	*M2/4
*F:	*F:	*F:	*F:
4T	4I	8c	16r
.	.	.	16f'LL 16a'
.	.	8r	16g' 16b-'
.	.	.	16a'JJ 16cc'
=168	=168	=168	=168
2T	2I	8A	16r
.	.	.	16a'LL 16ff'
.	.	8r	16b-' 16gg'
.	.	.	16cc'JJ 16aa'
.	.	8F	16r
.	.	.	16ff'LL 16aa'
.	.	8r	16gg' 16bb-'
.	.	.	16aa'JJ 16ccc'
=169	=169	=169	=169
4T	4V7b	8E	16r
.	.	.	16aa'LL 16ccc'
.	.	8r	16ff#' 16aa'
.	.	.	16gg'JJ 16bb-'
4T	4I	8F	16r
.	.	.	16gg'LL 16bb-'
.	.	8r	16ee' 16gg#'
.	.	.	16ff'JJ 16aa'
=170	=170	=170	=170
2T	2V7	8CL 8B-	16r
.	.	.	16ee' 16gg'
.	.	8CJ 8A	16r
.	.	.	16ff'
.	.	8CL 8G	16r
.	.	.	16ee' 16bb-'
.	.	8CJ 8F	16r
.	.	.	16ff' 16aa'
=171	=171	=171	=171
4T	4V	8C 8c	16r
.	.	.	16ff'LL 16aa'
.	.	8r	16dd#' 16ff#'
.	.	.	16ee'JJ 16gg'
4T	4I	8cL	16r
.	.	.	16f'LL 16a'
.	.	8CJ	16g' 16b-'
.	.	.	16a'JJ 16cc'
=172	=172	=172	=172
2T	2I	8AL	16r
.	.	.	16a'LL 16ff'
.	.	8AAJ	16b-' 16gg'
.	.	.	16cc'JJ 16aa'
.	.	8FL	16r
.	.	.	16ff'LL 16aa'
.	.	8FFJ	16gg' 16bb-'
.	.	.	16aa'JJ 16ccc'
=173	=173	=173	=173
4T	4V7b	8EL	16r
.	.	.	16aa'LL 16ccc'
.	.	8EEJ	16ff#' 16aa'
.	.	.	16gg'JJ 16bb-'
4T	4I	8FL	16r
.	.	.	16gg'LL 16bb-'
.	.	8FFJ	16ee' 16gg#'
.	.	.	16ff'JJ 16aa'
=174	=174	=174	=174
4P	4vi	8DL	16r
.	.	.	16ff'LL 16aa'
.	.	8DDJ	16ee' 16gg'
.	.	.	16dd'JJ 16ff'
4P	4V/V	8GL	16r
.	.	.	16dd'LL 16ff'
.	.	8GGJ	16cc' 16ee'
.	.	.	16b'JJ 16dd'
=175	=175	=175	=175
2D	2V	16r	8e'L 8cc'
.	.	16CLL	.
.	.	16D	8ee'J 8gg'
.	.	16EJJ	.
.	.	16r	8ee'L 8gg'
.	.	16ELL	.
.	.	16F	8ee'J 8gg'
.	.	16F#JJ	.
*-	*-	*-	*-
